images/icon/arrange-reset.svg

<svg width="32" height="32" viewBox="0 0 32 32" fill="none" xmlns="http://www.w3.org/2000/svg">
<path fill-rule="evenodd" clip-rule="evenodd" d="M3 4C3 3.44772 3.44772 3 4 3H14C14.5523 3 15 3.44772 15 4V7.5C15 8.05228 14.5523 8.5 14 8.5C13.4477 8.5 13 8.05228 13 7.5V5H5V13H7.5C8.05228 13 8.5 13.4477 8.5 14C8.5 14.5523 8.05228 15 7.5 15H4C3.44772 15 3 14.5523 3 14V4Z"/>
<path d="M12 11H20C20.5523 11 21 11.4477 21 12V14C21 14.5523 20.5523 15 20 15H16C15.4477 15 15 15.4477 15 16V20C15 20.5523 14.5523 21 14 21H12C11.4477 21 11 20.5523 11 20V12C11 11.4477 11.4477 11 12 11Z"/>
<path fill-rule="evenodd" clip-rule="evenodd" d="M19 19V27H27V19H19ZM18 17C17.4477 17 17 17.4477 17 18V28C17 28.5523 17.4477 29 18 29H28C28.5523 29 29 28.5523 29 28V18C29 17.4477 28.5523 17 28 17H18Z"/>
</svg>

<svg xmlns="http://www.w3.org/2000/svg" width="32" height="32" viewBox="0 0 32 32">
  <path fill-rule="evenodd" d="M3 4a1 1 0 0 1 1-1h10a1 1 0 0 1 1 1v3.5a1 1 0 1 1-2 0V5H5v8h2.5a1 1 0 1 1 0 2H4a1 1 0 0 1-1-1V4Z" clip-rule="evenodd"/>
  <path d="M12 11h8a1 1 0 0 1 1 1v2a1 1 0 0 1-1 1h-4a1 1 0 0 0-1 1v4a1 1 0 0 1-1 1h-2a1 1 0 0 1-1-1v-8a1 1 0 0 1 1-1Z"/>
  <path fill-rule="evenodd" d="M19 19v8h8v-8h-8Zm-1-2a1 1 0 0 0-1 1v10a1 1 0 0 0 1 1h10a1 1 0 0 0 1-1V18a1 1 0 0 0-1-1H18Z" clip-rule="evenodd"/>
</svg>
